!!!COM: つつみこうき
!!!OTL: 気づいたら片想い
**kern	**kern	**text	**kern	**kern	**text	**kern	**text
*part5	*part4	*part4	*part3	*part2	*part2	*part1	*part1
*staff5	*staff4	*staff4	*staff3	*staff2	*staff2	*staff1	*staff1
*I"つつみ	*I"ジョン	*	*I"にしむ	*I"あいな	*	*I"みさき	*
*I'つつみ	*I'ジョン	*	*I'にしむ	*I'あいな	*	*I'みさき	*
*clefF4	*clefG2	*	*clefG2	*clefG2	*	*clefG2	*
*k[b-]	*k[b-]	*	*k[b-]	*k[b-]	*	*k[b-]	*
*M4/4	*M4/4	*	*M4/4	*M4/4	*	*M4/4	*
*met(c)	*met(c)	*	*met(c)	*met(c)	*	*met(c)	*
=1	=1	=1	=1	=1	=1	=1	=1
1r	1r	.	1r	1r	.	2r	.
*MM120	*MM120	*	*MM120	*MM120	*	*MM120	*
.	.	.	.	.	.	8aL	き
.	.	.	.	.	.	8g	づ
.	.	.	.	.	.	8f	い
.	.	.	.	.	.	8aJ	た
=2	=2	=2	=2	=2	=2	=2	=2
2B-	1r	.	1r	1r	.	4b-	ら
.	.	.	.	.	.	8r	.
.	.	.	.	.	.	8f	か
2E	.	.	.	.	.	8.eL	た
.	.	.	.	.	.	[16fJk	お
.	.	.	.	.	.	8fL]	.
.	.	.	.	.	.	8gJ	も
=3	=3	=3	=3	=3	=3	=3	=3
2C	1r	.	1r	1r	.	4a	い
.	.	.	.	.	.	8r	.
.	.	.	.	.	.	8e	い
2D	.	.	.	.	.	8.dL	つ
.	.	.	.	.	.	[16eJk	の
.	.	.	.	.	.	8eL]	.
.	.	.	.	.	.	8fJ	ま
=4	=4	=4	=4	=4	=4	=4	=4
2GG	1r	.	1r	1r	.	4g	に
.	.	.	.	.	.	8gL	か
.	.	.	.	.	.	8fJ	す
2AA	.	.	.	.	.	8eL	き
.	.	.	.	.	.	8A	だ
.	.	.	.	.	.	8b-	っ
.	.	.	.	.	.	8b-J	た
=5	=5	=5	=5	=5	=5	=5	=5
4D	1r	.	1r	1r	.	4a	ー
4D-X	.	.	.	.	.	4r	.
2C	.	.	.	.	.	8.f#XL	あ
.	.	.	.	.	.	[16gJk	な
.	.	.	.	.	.	8gL]	.
.	.	.	.	.	.	8aJ	た
=6	=6	=6	=6	=6	=6	=6	=6
1GG	1r	.	1r	1r	.	4b-	を
.	.	.	.	.	.	8r	.
.	.	.	.	.	.	8f	お
.	.	.	.	.	.	8.eL	も
.	.	.	.	.	.	[16ccJk	う
.	.	.	.	.	.	8ccL]	.
.	.	.	.	.	.	8b-J	そ
=7	=7	=7	=7	=7	=7	=7	=7
4C	1r	.	1r	1r	.	4a	の
4A	.	.	.	.	.	4e	た
2D	.	.	.	.	.	4d	び
.	.	.	.	.	.	8r	.
.	.	.	.	.	.	8f	な
=8	=8	=8	=8	=8	=8	=8	=8
1r	1r	.	1r	1r	.	8.gL	ん
.	.	.	.	.	.	[16gJk	だ
.	.	.	.	.	.	8gL]	.
.	.	.	.	.	.	8fJ	か
.	.	.	.	.	.	8.eL	せ
.	.	.	.	.	.	[16dJk	つ
.	.	.	.	.	.	8dL]	.
.	.	.	.	.	.	8c#XJ	な
=9	=9	=9	=9	=9	=9	=9	=9
1r	1r	.	1r	1r	.	4.e	く
.	.	.	.	.	.	16dLL	て
.	.	.	.	.	.	16eJJ	ー
.	.	.	.	.	.	2d	.
=10	=10	=10	=10	=10	=10	=10	=10
2r	1r	.	1r	1r	.	1r	.
4r	.	.	.	.	.	.	.
16EELL	.	.	.	.	.	.	.
16FF	.	.	.	.	.	.	.
16GG	.	.	.	.	.	.	.
16AAJJ	.	.	.	.	.	.	.
=11	=11	=11	=11	=11	=11	=11	=11
8.BB-L	2f	.	2b-	2dd	ah-	1r	.
[16BB-Jk	.	.	.	.	.	.	.
8BB-L]	.	.	.	.	.	.	.
8AAJ	.	.	.	.	.	.	.
4GG	2e	.	2g	2cc	.	.	.
8r	.	.	.	.	.	.	.
8AA	.	.	.	.	.	.	.
=12	=12	=12	=12	=12	=12	=12	=12
8.AAL	2e	.	2a	2cc	.	1r	.
[16AAJk	.	.	.	.	.	.	.
8AAL]	.	.	.	.	.	.	.
8GGJ	.	.	.	.	.	.	.
4FF	2f	.	2a	2cc	.	.	.
4r	.	.	.	.	.	.	.
=13	=13	=13	=13	=13	=13	=13	=13
16BB-	16f	.	16b-	16dd	da	1r	.
8r	8r	.	8r	8r	.	.	.
16BB-	16f	.	16b-	16dd	da	.	.
8r	8r	.	8r	8r	.	.	.
8BB-	8f	.	8b-	8dd	da	.	.
16C	16e	.	16g	16cc	da	.	.
8r	8r	.	8r	8r	.	.	.
16C	16e	.	16g	16cc	da	.	.
8r	8r	.	8r	8r	.	.	.
8C	8e	.	8g	8cc	da	.	.
=14	=14	=14	=14	=14	=14	=14	=14
1D	1f	.	1a	1dd	da	2r	.
.	.	.	.	.	.	4r	.
.	.	.	.	.	.	8r	.
.	.	.	.	.	.	16cLL	ひ
.	.	.	.	.	.	16cJJ	と
=15	=15	=15	=15	=15	=15	=15	=15
[2C	1f	.	1a	1cc	uh	8aL	は
.	.	.	.	.	.	16aL	う
.	.	.	.	.	.	16aJJ	ま
.	.	.	.	.	.	16aLL	れ
.	.	.	.	.	.	16aJ	て
.	.	.	.	.	.	8aJ	なん
8CL]	.	.	.	.	.	8aL	か
8FFJ	.	.	.	.	.	16aL	い
.	.	.	.	.	.	16aJJ	の
4C	.	.	.	.	.	16aLL	で
.	.	.	.	.	.	16b-J	あい
.	.	.	.	.	.	8aJ	が
=16	=16	=16	=16	=16	=16	=16	=16
4.C	1e	.	1g	1cc	uh	8.aL	あ
.	.	.	.	.	.	[16gJk	る
.	.	.	.	.	.	8gL]	.
[8A	.	.	.	.	.	[8gJ	の
8AL]	.	.	.	.	.	4g]	.
8e	.	.	.	.	.	.	.
8c	.	.	.	.	.	8r	.
8CJ	.	.	.	.	.	16ALL	こ
.	.	.	.	.	.	16AJJ	ん
=17	=17	=17	=17	=17	=17	=17	=17
[2D	1d	.	1f	1a	uh	16fLL	ど
.	.	.	.	.	.	16f	こ
.	.	.	.	.	.	16f	そ
.	.	.	.	.	.	[16fJJ	うん
.	.	.	.	.	.	16fKL]	めい
.	.	.	.	.	.	8f	だ
.	.	.	.	.	.	16fJk	な
8DL]	.	.	.	.	.	8fL	ん
8DJ	.	.	.	.	.	8fJ	て
4A	.	.	.	.	.	16fLL	い
.	.	.	.	.	.	16gJ	つ
.	.	.	.	.	.	8fJ	も
=18	=18	=18	=18	=18	=18	=18	=18
4.AA	1e	.	1a	1cc	uh	8.fL	し
.	.	.	.	.	.	[16eJk	ん
.	.	.	.	.	.	8eL]	じ
[8A	.	.	.	.	.	[8eJ	て
8AL]	.	.	.	.	.	4e]	.
8EJ	.	.	.	.	.	.	.
4AA	.	.	.	.	.	8r	.
.	.	.	.	.	.	16ALL	そ
.	.	.	.	.	.	16AJJ	れ
=19	=19	=19	=19	=19	=19	=19	=19
4BB-	2f	.	2b-	2dd	uh	8fL	でも
.	.	.	.	.	.	16fL	な
.	.	.	.	.	.	16fJJ	ぜ
4BB-	.	.	.	.	.	16fKL	か
.	.	.	.	.	.	8f	すれ
.	.	.	.	.	.	16fJk	ち
4C	2e	.	2g	2cc	uh	16eLL	が
.	.	.	.	.	.	16eJ	っ
.	.	.	.	.	.	8dJ	て
4C	.	.	.	.	.	8eL	き
.	.	.	.	.	.	8dJ	づ
=20	=20	=20	=20	=20	=20	=20	=20
4AA	2e	.	2a	2cc#X	uh	8.c#XL	つ
.	.	.	.	.	.	[16dJk	い
4AA	.	.	.	.	.	8dL]	.
.	.	.	.	.	.	8eJ	て
4D	2d	.	2a	2dd	uh	4f	-
4D	.	.	.	.	.	8r	.
.	.	.	.	.	.	8A	ぜっ
=21	=21	=21	=21	=21	=21	=21	=21
4BB-	1f	.	1b-	1dd	uh	8fL	たい
.	.	.	.	.	.	16fL	こ
.	.	.	.	.	.	16fJJ	い
8BB-L	.	.	.	.	.	8fL	なん
[8DJ	.	.	.	.	.	16fL	か
.	.	.	.	.	.	16fJJ	す
8DL]	.	.	.	.	.	16gKL	る
.	.	.	.	.	.	8f	もん
8BB-J	.	.	.	.	.	.	.
.	.	.	.	.	.	16fJk	か
4D	.	.	.	.	.	8fL	と
.	.	.	.	.	.	16fL	あ
.	.	.	.	.	.	16fJJ	れ
=22	=22	=22	=22	=22	=22	=22	=22
4.C	1e	.	1g	1cc	uh	16eLL	か
.	.	.	.	.	.	16e	ら
.	.	.	.	.	.	16e	き
.	.	.	.	.	.	16eJJ	め
.	.	.	.	.	.	8eL	て
[8F	.	.	.	.	.	8dJ	い
8FL]	.	.	.	.	.	8dL	た
8EJ	.	.	.	.	.	16cL	の
.	.	.	.	.	.	[16cJJ	に
4C	.	.	.	.	.	8cL]	.
.	.	.	.	.	.	8cJ	しょう
=23	=23	=23	=23	=23	=23	=23	=23
8.CL	4f	.	4a	4cc	fu	8aL	かい
.	.	.	.	.	.	16aL	さ
16FFJk	.	.	.	.	.	16aJJ	れ
8r	8r	.	8r	8r	.	16aLL	た
.	.	.	.	.	.	16a	と
[8C	2f	.	2a	2cc	fu	16a	き
.	.	.	.	.	.	16aJJ	に
8CL]	.	.	.	.	.	8aL	きょう
8FFJ	.	.	.	.	.	16aL	み
.	.	.	.	.	.	16aJJ	な
4C	.	.	.	.	.	8b-L	い
.	8r	.	8r	8r	.	16aL	ふ
.	.	.	.	.	.	16aJJ	り
=24	=24	=24	=24	=24	=24	=24	=24
4.C	8GL	.	8ccL	8eL	lu	8.aL	を
.	8B-J	.	8b-J	8fJ	lu	.	.
.	.	.	.	.	.	[16gJk	し
.	2e	.	2g	2cc	lu	8gL]	.
[8c	.	.	.	.	.	[8gJ	て
8cL]	.	.	.	.	.	4g]	.
8e	.	.	.	.	.	.	.
8c	4r	.	4r	4r	.	16r	.
.	.	.	.	.	.	16AKL	ぶ
8CJ	.	.	.	.	.	8AJ	あい
=25	=25	=25	=25	=25	=25	=25	=25
8.DL	4d	.	4f	4a	fu	8fL	そう
.	.	.	.	.	.	8fJ	だっ
16AAJk	.	.	.	.	.	.	.
8r	8r	.	8r	8r	.	16fLL	た
.	.	.	.	.	.	16f	の
[8D	2d	.	2f	2a	fu	16f	は
.	.	.	.	.	.	16fJJ	じ
8DL]	.	.	.	.	.	8fL	ぶん
8AAJ	.	.	.	.	.	16fL	を
.	.	.	.	.	.	16fJJ	ま
4D	.	.	.	.	.	16gLL	も
.	.	.	.	.	.	16f	る
.	8r	.	8r	8r	.	16f	た
.	.	.	.	.	.	16fJJ	め
=26	=26	=26	=26	=26	=26	=26	=26
4.AA	8GL	.	8eL	8ccL	lu	8.fL	だ
.	8B-J	.	8dJ	8b-J	lu	.	.
.	.	.	.	.	.	[16eJk	っ
.	2e	.	2c	2g	lu	8eL]	.
[8A	.	.	.	.	.	[8eJ	た
8AL]	.	.	.	.	.	4e]	.
8EJ	.	.	.	.	.	.	.
4AA	4r	.	4r	4r	.	8r	.
.	.	.	.	.	.	8A	たん
=27	=27	=27	=27	=27	=27	=27	=27
4BB-	2B-	.	2d	2f	uh	8fL	じょう
.	.	.	.	.	.	16fL	び
.	.	.	.	.	.	[16fJJ	も
4BB-	.	.	.	.	.	16fLL]	.
.	.	.	.	.	.	16f	ク
.	.	.	.	.	.	16f	リ
.	.	.	.	.	.	16fJJ	ス
4C	2c	.	2e	2g	uh	8fL	マ
.	.	.	.	.	.	16dL	ス
.	.	.	.	.	.	[16eJJ	も
4C	.	.	.	.	.	8eL]	.
.	.	.	.	.	.	16dL	バ
.	.	.	.	.	.	16dJJ	レ
=28	=28	=28	=28	=28	=28	=28	=28
4C#X	2c#X	.	2e	2a	uh	8c#XL	ン
.	.	.	.	.	.	16c#L	タ
.	.	.	.	.	.	[16dJJ	イン
4C#	.	.	.	.	.	16dLL]	.
.	.	.	.	.	.	16dJ	デ
.	.	.	.	.	.	8eJ	ー
4D	2d	.	2f	2a	uh	4f	も
4D	.	.	.	.	.	8r	.
.	.	.	.	.	.	16cnLL	ひ
.	.	.	.	.	.	16cJJ	と
=29	=29	=29	=29	=29	=29	=29	=29
4BB-	1d	.	1f	1b-	uh	16fLL	り
.	.	.	.	.	.	16f	で
.	.	.	.	.	.	16f	も
.	.	.	.	.	.	16fJJ	す
8BB-L	.	.	.	.	.	16fLL	ご
.	.	.	.	.	.	16f	せ
[8DJ	.	.	.	.	.	16f	る
.	.	.	.	.	.	16fJJ	つ
8DL]	.	.	.	.	.	8gL	よ
8BB-J	.	.	.	.	.	16fL	さ
.	.	.	.	.	.	16fJJ	を
4D	.	.	.	.	.	8r	.
.	.	.	.	.	.	8A	よ
=30	=30	=30	=30	=30	=30	=30	=30
4.C	2e	.	2g	2cc	uh	8eL	う
.	.	.	.	.	.	16eL	や
.	.	.	.	.	.	16eJJ	く
.	.	.	.	.	.	16eLL	み
.	.	.	.	.	.	16e	に
[8c	.	.	.	.	.	16e	つ
.	.	.	.	.	.	16eJJ	け
8cL]	4r	.	4r	4r	.	8eL	た
8GJ	.	.	.	.	.	16fL	は
.	.	.	.	.	.	16gJJ	ず
4E	8cL	.	8eL	8gL	だ	4r	.
.	8cJ	.	8eJ	8gJ	め	.	.
=31	=31	=31	=31	=31	=31	=31	=31
8.DL	1d	.	1f	1a	よ	4r	.
16DJk	.	.	.	.	.	.	.
8r	.	.	.	.	.	8r	.
[8A	.	.	.	.	.	16fLL	あ
.	.	.	.	.	.	16fJJ	な
8AL]	.	.	.	.	.	16fLL	た
.	.	.	.	.	.	16f	が
8D	.	.	.	.	.	16f	ど
.	.	.	.	.	.	16fJJ	こ
8A	.	.	.	.	.	16gLL	に
.	.	.	.	.	.	16f	いる
8DJ	.	.	.	.	.	16f	の
.	.	.	.	.	.	16fJJ	か
=32	=32	=32	=32	=32	=32	=32	=32
8.AAL	2d	.	2f	2b-	uh	8eL	き
.	.	.	.	.	.	8fJ	に
16AAJk	.	.	.	.	.	.	.
8r	.	.	.	.	.	8eL	な
[8E	.	.	.	.	.	16dL	る
.	.	.	.	.	.	[16cJJ	し
8EL]	4r	.	4r	4r	.	4c]	ー
8AA	.	.	.	.	.	.	.
8E	8cL	.	8eL	8gL	む	4r	.
8AAJ	8cJ	.	8eJ	8gJ	り	.	.
=33	=33	=33	=33	=33	=33	=33	=33
8.BB-L	1d	.	1f	1a	よ	4r	.
16BB-Jk	.	.	.	.	.	.	.
8r	.	.	.	.	.	8r	.
[8F	.	.	.	.	.	16fLL	で
.	.	.	.	.	.	16fJJ	ん
8FL]	.	.	.	.	.	16gLL	わ
.	.	.	.	.	.	16f	か
8BB-	.	.	.	.	.	16f	け
.	.	.	.	.	.	[16fJJ	て
8F	.	.	.	.	.	8fL]	.
8BB-J	.	.	.	.	.	16fL	こ
.	.	.	.	.	.	16fJJ	え
=34	=34	=34	=34	=34	=34	=34	=34
4F	4f	.	4a	4cc	wo	8aL	を
.	.	.	.	.	.	8b-J	き
4F	4f	.	4f	4b-	wo	8aL	き
.	.	.	.	.	.	16gL	た
.	.	.	.	.	.	16gJJ	い
4E	4r	.	4r	4r	.	4f	.
4C	8cL	.	8eL	8gL	い	4r	.
.	8cJ	.	8eJ	8gJ	や	.	.
=35	=35	=35	=35	=35	=35	=35	=35
8.DL	1d	.	1f	1a	よ	4r	.
16DJk	.	.	.	.	.	.	.
8r	.	.	.	.	.	16fKL	あ
.	.	.	.	.	.	8f	ん
[8A	.	.	.	.	.	.	.
.	.	.	.	.	.	16fJk	な
8AL]	.	.	.	.	.	16gLL	に
.	.	.	.	.	.	16f	く
8D	.	.	.	.	.	16f	る
.	.	.	.	.	.	[16fJJ	し
8A	.	.	.	.	.	16fLL]	.
.	.	.	.	.	.	16fJ	く
8DJ	.	.	.	.	.	8fJ	て
=36	=36	=36	=36	=36	=36	=36	=36
8.AAL	1c	.	1e	1g	uh	8eL	つ
.	.	.	.	.	.	8fJ	ら
16AAJk	.	.	.	.	.	.	.
8r	.	.	.	.	.	8eL	い
[8E	.	.	.	.	.	16dL	ひ
.	.	.	.	.	.	16dJJ	び
8EL]	.	.	.	.	.	4c	.
8AA	.	.	.	.	.	.	.
8E	.	.	.	.	.	16r	.
.	.	.	.	.	.	16fLL	な
8AAJ	.	.	.	.	.	16e	み
.	.	.	.	.	.	16fJJ	だ
=37	=37	=37	=37	=37	=37	=37	=37
4BB-	1B-	.	1d	1f	uh	16gKL	だ
.	.	.	.	.	.	8f	っ
.	.	.	.	.	.	[16fJk	て
8B-L	.	.	.	.	.	8fL]	.
8BB-J	.	.	.	.	.	8fJ	も
4BB-	.	.	.	.	.	16gLL	う
.	.	.	.	.	.	16f	か
.	.	.	.	.	.	16f	れ
.	.	.	.	.	.	16fJJ	た
8B-L	.	.	.	.	.	4r	.
8BB-J	.	.	.	.	.	.	.
=38	=38	=38	=38	=38	=38	=38	=38
4C	1c	.	1e	1g	uh	8eL	い
.	.	.	.	.	.	8eJ	ま
4C	.	.	.	.	.	8eL	の
.	.	.	.	.	.	16dL	わ
.	.	.	.	.	.	[16eJJ	た
8CL	.	.	.	.	.	16eLL]	.
.	.	.	.	.	.	16eJ	し
8C	.	.	.	.	.	8fJ	よ
8C	.	.	.	.	.	4g	.
8CJ	.	.	.	.	.	.	.
=39	=39	=39	=39	=39	=39	=39	=39
2C	1r	.	1r	2cc	fu	2r	.
2r	.	.	.	2r	.	8aL	き
.	.	.	.	.	.	8g	づ
.	.	.	.	.	.	8f	い
.	.	.	.	.	.	8aJ	た
=40	=40	=40	=40	=40	=40	=40	=40
8GGL	2d	.	2f	2b-	ah	4b-	ら
8GG	.	.	.	.	.	.	.
8D	.	.	.	.	.	8r	.
8GGJ	.	.	.	.	.	8f	か
8CL	2c	.	2e	2g	ah	8.eL	た
8C	.	.	.	.	.	.	.
.	.	.	.	.	.	[16fJk	お
8G	.	.	.	.	.	8fL]	.
8CJ	.	.	.	.	.	8gJ	も
=41	=41	=41	=41	=41	=41	=41	=41
8AAL	2c	.	2e	2g	ah	4a	い
8AA	.	.	.	.	.	.	.
8E	.	.	.	.	.	8r	.
8AAJ	.	.	.	.	.	8e	い
8r	2f	.	2a	2cc	ah	8.dL	つ
8DL	.	.	.	.	.	.	.
.	.	.	.	.	.	[16eJk	の
8A	.	.	.	.	.	8eL]	.
8DJ	.	.	.	.	.	8fJ	ま
=42	=42	=42	=42	=42	=42	=42	=42
8GGL	2c	.	2e	2g	ah	4g	に
8GG	.	.	.	.	.	.	.
8D	.	.	.	.	.	8gL	か
8GGJ	.	.	.	.	.	8fJ	す
8AAL	2c#X	.	2e	2g	ah	8eL	き
8AA	.	.	.	.	.	8A	だ
8E	.	.	.	.	.	8b-	っ
8AAJ	.	.	.	.	.	8b-J	た
=43	=43	=43	=43	=43	=43	=43	=43
4D	2f	.	2a	2cc	ah	4a	ー
4D-X	.	.	.	.	.	4r	.
4C	2d	.	2f#X	2a	ah	8.f#XL	あ
.	.	.	.	.	.	[16gJk	な
4C-X	.	.	.	.	.	8gL]	.
.	.	.	.	.	.	8aJ	た
=44	=44	=44	=44	=44	=44	=44	=44
8GGL	2B-	.	2d	2f	ah	4b-	を
8GG	.	.	.	.	.	.	.
8D	.	.	.	.	.	8r	.
8GGJ	.	.	.	.	.	8f	お
8CL	2c	.	2e	2g	ah	8.eL	も
8C	.	.	.	.	.	.	.
.	.	.	.	.	.	[16ccJk	う
8G	.	.	.	.	.	8ccL]	.
8CJ	.	.	.	.	.	8b-J	そ
=45	=45	=45	=45	=45	=45	=45	=45
8C#XL	2e	.	2a	2cc	ah	4a	の
8C#	.	.	.	.	.	.	.
8G	.	.	.	.	.	4e	た
8C#J	.	.	.	.	.	.	.
8r	2d	.	2f	2a	ah	4d	び
8DL	.	.	.	.	.	.	.
8A	.	.	.	.	.	8r	.
8DJ	.	.	.	.	.	8f	なん
=46	=46	=46	=46	=46	=46	=46	=46
8GGL	2B-	.	2d	2f	ah	8.gL	だ
8GG	.	.	.	.	.	.	.
.	.	.	.	.	.	[16gJk	か
8D	.	.	.	.	.	8gL]	.
8GGJ	.	.	.	.	.	8fJ	せ
8AAL	2c#X	.	2e	2g	ah	8.eL	つ
8AA	.	.	.	.	.	.	.
.	.	.	.	.	.	[16dJk	な
8E	.	.	.	.	.	8dL]	.
8AAJ	.	.	.	.	.	8c#XJ	く
=47	=47	=47	=47	=47	=47	=47	=47
8CL	2d	.	2f	2a	ah	4d	て
8D	.	.	.	.	.	.	.
8E	.	.	.	.	.	4r	.
8FJ	.	.	.	.	.	.	.
4r	2r	.	2r	2r	.	8aL	き
.	.	.	.	.	.	8g	づ
4D	.	.	.	.	.	8f	い
.	.	.	.	.	.	8aJ	た
=48	=48	=48	=48	=48	=48	=48	=48
8GGL	2d	.	2f	2b-	ah	4b-	ら
8GG	.	.	.	.	.	.	.
8D	.	.	.	.	.	8r	.
8GGJ	.	.	.	.	.	8f	か
8CL	2c	.	2e	2g	ah	8.eL	た
8C	.	.	.	.	.	.	.
.	.	.	.	.	.	[16fJk	お
8G	.	.	.	.	.	8fL]	.
8CJ	.	.	.	.	.	8gJ	も
=49	=49	=49	=49	=49	=49	=49	=49
8AAL	2c	.	2e	2g	ah	4a	い
8AA	.	.	.	.	.	.	.
8E	.	.	.	.	.	4r	.
8AAJ	.	.	.	.	.	.	.
8r	2f	.	2a	2cc	ah	8.dL	み
8DL	.	.	.	.	.	.	.
.	.	.	.	.	.	[16eJk	と
8A	.	.	.	.	.	8eL]	.
8DJ	.	.	.	.	.	8fJ	め
=50	=50	=50	=50	=50	=50	=50	=50
8GGL	2c	.	2e	2g	ah	4g	た
8GG	.	.	.	.	.	.	.
8D	.	.	.	.	.	8gL	く
8GGJ	.	.	.	.	.	8fJ	は
8AAL	2c#X	.	2e	2g	ah	8eL	な
8AA	.	.	.	.	.	8A	い
8E	.	.	.	.	.	8b-	け
8AAJ	.	.	.	.	.	8b-J	ど
=51	=51	=51	=51	=51	=51	=51	=51
4D	2f	.	2a	2cc	ah	4a	ー
4D-X	.	.	.	.	.	8r	.
.	.	.	.	.	.	8f#X	ご
4C	2d	.	2f#X	2a	ah	8.f#L	う
.	.	.	.	.	.	[16gJk	じょ
4C-X	.	.	.	.	.	8gL]	.
.	.	.	.	.	.	8aJ	う
=52	=52	=52	=52	=52	=52	=52	=52
8GGL	2B-	.	2d	2f	ah	4b-	に
8GG	.	.	.	.	.	.	.
8D	.	.	.	.	.	8r	.
8GGJ	.	.	.	.	.	8f	な
8CL	2c	.	2e	2g	ah	8.eL	っ
8G	.	.	.	.	.	.	.
.	.	.	.	.	.	[16ccJk	て
8C	.	.	.	.	.	8ccL]	.
8CJ	.	.	.	.	.	8b-J	い
=53	=53	=53	=53	=53	=53	=53	=53
8C#XL	2c	.	2e	2a	ah	4a	る
8C#	.	.	.	.	.	.	.
8G	.	.	.	.	.	4e	ぶ
8C#J	.	.	.	.	.	.	.
8r	2d	.	2f	2a	ah	4d	ん
8DL	.	.	.	.	.	.	.
8A	.	.	.	.	.	8fL	こ
8DJ	.	.	.	.	.	8fJ	こ
=54	=54	=54	=54	=54	=54	=54	=54
16BB-	16B-	.	16d	16f	da	8.gL	ろ
8r	8r	.	8r	8r	.	.	.
16BB-	16B-	.	16d	16f	da	[16gJk	は
8r	8r	.	8r	8r	.	8gL]	.
8BB-	8B-	.	8d	8f	da	8fJ	も
16C	16c	.	16e	16g	da	8.eL	ろ
8r	8r	.	8r	8r	.	.	.
16C	16c	.	16e	16g	da	[16dJk	い
8r	8r	.	8r	8r	.	8dL]	.
8C	8c#X	.	8e	8g	da	8c#XJ	か
=55	=55	=55	=55	=55	=55	=55	=55
1D	2d	.	2f	2a	da	2d	も
.	2r	.	2r	2r	.	4f	か
.	.	.	.	.	.	4g	ん
=56	=56	=56	=56	=56	=56	=56	=56
8BB-L	1d	.	1f	1a	fu	4.a	じょう
8F	.	.	.	.	.	.	.
8B-J	.	.	.	.	.	.	.
[2d	.	.	.	.	.	8a	を
.	.	.	.	.	.	8aL	お
.	.	.	.	.	.	8g	さ
.	.	.	.	.	.	8f	え
8d]	.	.	.	.	.	8aJ	て
=57	=57	=57	=57	=57	=57	=57	=57
8r	1d	.	1g	1b-	fu	4g	も
8BB-L	.	.	.	.	.	.	.
8E	.	.	.	.	.	4r	.
8GJ	.	.	.	.	.	.	.
4B-	.	.	.	.	.	4g	い
8GL	.	.	.	.	.	4a	き
8DJ	.	.	.	.	.	.	.
=58	=58	=58	=58	=58	=58	=58	=58
4.BB-	1d	.	1g	1b-	fu	4.b-	が
[8D	.	.	.	.	.	8b-	く
4D]	.	.	.	.	.	8b-L	る
.	.	.	.	.	.	8a	し
8EL	.	.	.	.	.	8g	く
8FJ	.	.	.	.	.	8fJ	な
=59	=59	=59	=59	=59	=59	=59	=59
2C	1f	fu	4a	4dd	uh	4a	る
.	.	.	8fL	8aL	.	4r	.
.	.	.	8dJ	8fJ	.	.	.
2AA	.	.	8cL	8dL	.	4f	こ
.	.	.	8fJ	8fJ	.	.	.
.	.	.	4e	4g	.	4g	ん
=60	=60	=60	=60	=60	=60	=60	=60
4.AA	1d	.	1f	1a	fu	4.a	な
[8C	.	.	.	.	.	8a	に
4C]	.	.	.	.	.	8aL	す
.	.	.	.	.	.	8g	き
8CL	.	.	.	.	.	8f	な
8FJ	.	.	.	.	.	8aJ	の
=61	=61	=61	=61	=61	=61	=61	=61
2G	1d	.	4r	1b-	fu	4g	に
.	.	.	8r	.	.	8r	.
.	.	.	[8g	.	.	[8g	こ
2A	.	.	8gL]	.	.	8gL]	.
.	.	.	8f	.	.	8f	と
.	.	.	8e	.	.	8e	ば
.	.	.	8AJ	.	.	8AJ	に
=62	=62	=62	=62	=62	=62	=62	=62
4BB-	1e	.	8gL	1cc	fu	8eL	し
.	.	.	16aL	.	.	16fL	た
.	.	.	[16aJJ	.	.	16fJJ	ら
8FFL	.	.	2.a]	.	.	8r	.
8AAJ	.	.	.	.	.	8f	き
8DL	.	.	.	.	.	8aL	え
8FJ	.	.	.	.	.	8gJ	そ
4A	.	.	.	.	.	4f	う
=63	=63	=63	=63	=63	=63	=63	=63
1G	1d	.	1g	1cc	uh	1g	で
=64	=64	=64	=64	=64	=64	=64	=64
1r	1r	.	1r	1r	.	2r	.
.	.	.	.	.	.	8aL	き
.	.	.	.	.	.	8g	づ
.	.	.	.	.	.	8f	い
.	.	.	.	.	.	8aJ	た
=65	=65	=65	=65	=65	=65	=65	=65
2r	2r	.	2r	2r	.	4b-	ら
.	.	.	.	.	.	4r	.
8B-L	8B-L	.	8b-L	8b-L	.	8b-L	き
8A-X	8A-X	.	8a-X	8a-X	.	8a-X	づ
8G-X	8G-X	.	8g-X	8g-X	.	8g-X	い
8B-J	8B-J	.	8b-J	8b-J	.	8b-J	た
=66	=66	=66	=66	=66	=66	=66	=66
2.Bn	2.Bn	.	2.bn	2.bn	.	2.bn	ら
4r	4r	.	4r	4r	.	4r	.
=67||	=67||	=67||	=67||	=67||	=67||	=67||	=67||
*k[f#]	*k[f#]	*	*k[f#]	*k[f#]	*	*k[f#]	*
*M2/4	*M2/4	*	*M2/4	*M2/4	*	*M2/4	*
2r	2r	.	2r	2r	.	8bL	き
.	.	.	.	.	.	8aJ	づ
.	.	.	.	.	.	8gL	い
.	.	.	.	.	.	8bJ	た
=68||	=68||	=68||	=68||	=68||	=68||	=68||	=68||
*M4/4	*M4/4	*	*M4/4	*M4/4	*	*M4/4	*
*met(c)	*met(c)	*	*met(c)	*met(c)	*	*met(c)	*
1r	4c	.	4f#	4a	.	4cc	ら
.	8r	.	8r	8r	.	8r	.
.	8c	.	8e	8b	.	8g	か
.	8.cL	.	8.dL	8.aL	.	8.f#L	た
.	[16cJk	.	[16eJk	[16bJk	.	[16gJk	お
.	8cL]	.	8eL]	8bL]	.	8gL]	.
.	8cJ	.	8f#J	8ccJ	.	8aJ	も
=69	=69	=69	=69	=69	=69	=69	=69
1r	4B	.	4g	4dd	.	4b	い
.	4r	.	4r	4r	.	8r	.
.	.	.	.	.	.	8f#	い
.	2r	.	2r	2r	.	8.eL	つ
.	.	.	.	.	.	[16f#Jk	の
.	.	.	.	.	.	8f#L]	.
.	.	.	.	.	.	8gJ	ま
=70	=70	=70	=70	=70	=70	=70	=70
8AAL	2e	.	2g	2cc	ah	4a	に
8AA	.	.	.	.	.	.	.
8E	.	.	.	.	.	8aL	か
8AAJ	.	.	.	.	.	8gJ	す
8DL	2f#	.	2b	2dd	ah	8f#L	き
8D	.	.	.	.	.	8B	だ
8A	.	.	.	.	.	8cc	っ
8DJ	.	.	.	.	.	8ccJ	た
=71	=71	=71	=71	=71	=71	=71	=71
8EL	2e	.	2g	2b	ah	4b	ー
8E	.	.	.	.	.	.	.
8B	.	.	.	.	.	4r	.
8EJ	.	.	.	.	.	.	.
8r	2e	.	2g	2b	ah	8.gL	あ
8EL	.	.	.	.	.	.	.
.	.	.	.	.	.	[16aJk	な
8B	.	.	.	.	.	8aL]	.
8EJ	.	.	.	.	.	8bJ	た
=72	=72	=72	=72	=72	=72	=72	=72
8AAL	2c	.	2e	2g	ah	4cc	を
8AA	.	.	.	.	.	.	.
8E	.	.	.	.	.	8r	.
8AAJ	.	.	.	.	.	8g	お
8DL	2d	.	2f#	2a	ah	8.f#L	も
8D	.	.	.	.	.	.	.
.	.	.	.	.	.	[16ddJk	う
8A	.	.	.	.	.	8ddL]	.
8DJ	.	.	.	.	.	8ccJ	そ
=73	=73	=73	=73	=73	=73	=73	=73
8D#XL	2d#X	.	2f#	2b	ah	4b	の
8D#	.	.	.	.	.	.	.
8A	.	.	.	.	.	4f#	た
8D#J	.	.	.	.	.	.	.
8r	2e	.	2g	2b	ah	4e	び
8EL	.	.	.	.	.	.	.
8B	.	.	.	.	.	8r	.
8EJ	.	.	.	.	.	8g	なん
=74	=74	=74	=74	=74	=74	=74	=74
8AAL	2c	.	2e	2g	ah	8.aL	だ
8AA	.	.	.	.	.	.	.
.	.	.	.	.	.	[16aJk	か
8E	.	.	.	.	.	8aL]	.
8AAJ	.	.	.	.	.	8gJ	せ
8BBL	2d	.	2f#	2a	ah	8.f#L	つ
8BB	.	.	.	.	.	.	.
.	.	.	.	.	.	[16eJk	な
8E	.	.	.	.	.	8eL]	.
8BBJ	.	.	.	.	.	8d#XJ	く
=75	=75	=75	=75	=75	=75	=75	=75
8EL	1e	.	1g	1b	ah	4e	て
8EJ	.	.	.	.	.	.	.
16ELL	.	.	.	.	.	4r	.
16F#	.	.	.	.	.	.	.
16G	.	.	.	.	.	.	.
16BJJ	.	.	.	.	.	.	.
4e	.	.	.	.	.	8bL	き
.	.	.	.	.	.	8a	づ
4r	.	.	.	.	.	8g	い
.	.	.	.	.	.	8bJ	た
=76	=76	=76	=76	=76	=76	=76	=76
8AAL	2c	.	2f#	2a	ah	4cc	ら
8AA	.	.	.	.	.	.	.
8E	.	.	.	.	.	8r	.
8AAJ	.	.	.	.	.	8g	か
8DL	2d	.	2f#	2a	ah	8.f#L	た
8D	.	.	.	.	.	.	.
.	.	.	.	.	.	[16gJk	お
8A	.	.	.	.	.	8gL]	.
8DJ	.	.	.	.	.	8aJ	も
=77	=77	=77	=77	=77	=77	=77	=77
8BBL	2d	.	2f#	2b	ah	4b	い
8BB	.	.	.	.	.	.	.
8F#	.	.	.	.	.	4r	.
8BBJ	.	.	.	.	.	.	.
8r	2e	.	2g	2b	ah	8.eL	み
8EL	.	.	.	.	.	.	.
.	.	.	.	.	.	[16f#Jk	と
8B	.	.	.	.	.	8f#L]	.
8EJ	.	.	.	.	.	8gJ	め
=78	=78	=78	=78	=78	=78	=78	=78
8AAL	2e	.	2g	2cc	ah	4a	た
8AA	.	.	.	.	.	.	.
8E	.	.	.	.	.	8aL	く
8AAJ	.	.	.	.	.	8gJ	は
8BBL	2f#	.	2b	2dd	ah	8f#L	な
8BB	.	.	.	.	.	8B	い
8F#	.	.	.	.	.	8cc	け
8BBJ	.	.	.	.	.	8ccJ	ど
=79	=79	=79	=79	=79	=79	=79	=79
4E	2e	.	2g	2b	ah	4b	ー
4E-X	.	.	.	.	.	8r	.
.	.	.	.	.	.	8g	ご
4D	2e	.	2g#X	2b	ah	8.g#XL	う
.	.	.	.	.	.	[16aJk	じょ
4C#X	.	.	.	.	.	8aL]	.
.	.	.	.	.	.	8bJ	う
=80	=80	=80	=80	=80	=80	=80	=80
8AAL	2c	.	2e	2g	ah	4cc	に
8AA	.	.	.	.	.	.	.
8E	.	.	.	.	.	8r	.
8AAJ	.	.	.	.	.	8g	な
8EL	2d	.	2f#	2a	ah	8.f#L	っ
8E	.	.	.	.	.	.	.
.	.	.	.	.	.	[16ddJk	て
8A	.	.	.	.	.	8ddL]	.
8DJ	.	.	.	.	.	8ccJ	い
=81	=81	=81	=81	=81	=81	=81	=81
8D#XL	2B	.	2d	2f#	ah	4b	る
8D#	.	.	.	.	.	.	.
8A	.	.	.	.	.	4f#	ぶ
8D#J	.	.	.	.	.	.	.
8EL	2e	.	2g	2b	ah	4e	ん
8E	.	.	.	.	.	.	.
8B	.	.	.	.	.	8gL	こ
8EJ	.	.	.	.	.	8gJ	こ
=82	=82	=82	=82	=82	=82	=82	=82
16C	16c	.	16e	16g	da	8.aL	ろ
8r	8r	.	8r	8r	.	.	.
16C	16c	.	16e	16g	da	[16aJk	は
8r	8r	.	8r	8r	.	8aL]	.
8C	8c	.	8e	8g	da	8gJ	も
16BB	16d	.	16f#	16a	da	8.f#L	ろ
8r	8r	.	8r	8r	.	.	.
16BB	16d	.	16f#	16a	da	[16eJk	い
8r	8r	.	8r	8r	.	8eL]	.
8BB	8d	.	8f#	8a	da	8d#XJ	か
=83	=83	=83	=83	=83	=83	=83	=83
1E	1e	.	1g	1b	da	2.e	も
.	.	.	.	.	.	8r	.
.	.	.	.	.	.	8g	う
=84	=84	=84	=84	=84	=84	=84	=84
2C	2e	.	2g	2cc	fu	8.aL	け
.	.	.	.	.	.	[16aJk	い
.	.	.	.	.	.	8aL]	.
.	.	.	.	.	.	8gJ	れ
2BB	2f#	.	2d	2b	fu	8.f#L	る
.	.	.	.	.	.	[16eJk	し
.	.	.	.	.	.	8eL]	.
.	.	.	.	.	.	8d#XJ	か
=85	=85	=85	=85	=85	=85	=85	=85
1r	1r	.	1r	1r	.	4.f#	な
.	.	.	.	.	.	8f#	い
.	.	.	.	.	.	4e	ね
.	.	.	.	.	.	4r	.
==	==	==	==	==	==	==	==
*-	*-	*-	*-	*-	*-	*-	*-
